src/assets/image/donate/member-top.svg

<svg width="34" height="36" viewBox="0 0 34 36" fill="none" xmlns="http://www.w3.org/2000/svg">
<path d="M27.2363 3.06445L25.6161 0.364219C25.5495 0.253139 25.4552 0.161207 25.3425 0.097379C25.2298 0.0335506 25.1025 1.59029e-06 24.973 0H22.3679C22.0644 0 21.8867 0.341484 22.0606 0.590156L24.6685 4.31578C25.3651 3.66492 26.251 3.2182 27.2363 3.06445ZM33.6165 0H31.0114C30.748 0 30.5038 0.138281 30.3683 0.364219L28.748 3.06445C29.7334 3.2182 30.6193 3.66492 31.3159 4.31555L33.9238 0.590156C34.0977 0.341484 33.92 0 33.6165 0ZM27.9922 3.75C25.7141 3.75 23.8672 5.59688 23.8672 7.875C23.8672 10.1531 25.7141 12 27.9922 12C30.2703 12 32.1172 10.1531 32.1172 7.875C32.1172 5.59688 30.2703 3.75 27.9922 3.75ZM30.1606 7.43578L29.2716 8.30203L29.4819 9.52594C29.5194 9.74531 29.2883 9.91289 29.0916 9.8093L27.9922 9.23156L26.893 9.8093C26.6961 9.91359 26.4652 9.74508 26.5027 9.52594L26.713 8.30203L25.824 7.43578C25.6641 7.28016 25.7525 7.00852 25.9728 6.97664L27.2016 6.79758L27.7508 5.68383C27.8002 5.58352 27.8959 5.53406 27.9917 5.53406C28.088 5.53406 28.1844 5.58422 28.2338 5.68383L28.783 6.79758L30.0118 6.97664C30.2321 7.00852 30.3205 7.28016 30.1606 7.43578Z" fill="white"/>
<path d="M5.25593 28.0189L4.93833 28.6169L5.37573 29.1338C7.68506 31.8631 11.1407 33.6129 15 33.6129C18.8593 33.6129 22.3149 31.8631 24.6243 29.1338L25.0617 28.6169L24.7441 28.0189C23.4448 25.5724 20.8915 23.871 17.9032 23.871C17.6478 23.871 17.4043 23.9133 17.1826 23.9808L17.1734 23.9836L17.1642 23.9866C16.4614 24.2154 15.7385 24.3548 15 24.3548C14.2625 24.3548 13.5452 24.2158 12.8336 23.9859L12.8255 23.9833L12.8174 23.9808C12.5957 23.9133 12.3522 23.871 12.0968 23.871C9.10847 23.871 6.55519 25.5724 5.25593 28.0189ZM1 21C1 13.266 7.26599 7 15 7C22.734 7 29 13.266 29 21C29 28.734 22.734 35 15 35C7.26599 35 1 28.734 1 21ZM21.3226 17.129C21.3226 13.6372 18.4918 10.8065 15 10.8065C11.5082 10.8065 8.67742 13.6372 8.67742 17.129C8.67742 20.6208 11.5082 23.4516 15 23.4516C18.4918 23.4516 21.3226 20.6208 21.3226 17.129Z" stroke="white" stroke-width="2"/>
</svg>

<svg width="34" height="36" fill="none" xmlns="http://www.w3.org/2000/svg"><path d="m27.236 3.064-1.62-2.7A.75.75 0 0 0 24.973 0h-2.605a.375.375 0 0 0-.307.59l2.608 3.726a4.85 4.85 0 0 1 2.567-1.252ZM33.616 0h-2.605a.75.75 0 0 0-.643.364l-1.62 2.7c.985.154 1.871.6 2.568 1.252L33.924.59a.375.375 0 0 0-.307-.59Zm-5.624 3.75a4.125 4.125 0 1 0 0 8.25 4.125 4.125 0 0 0 0-8.25Zm2.169 3.686-.89.866.21 1.224a.27.27 0 0 1-.39.283l-1.099-.577-1.099.577a.269.269 0 0 1-.39-.283l.21-1.224-.889-.866a.27.27 0 0 1 .149-.46l1.229-.178.549-1.114c.05-.1.145-.15.24-.15.097 0 .193.05.243.15l.549 1.114 1.229.179a.27.27 0 0 1 .149.459Z" fill="#fff"/><path d="m5.256 28.019-.318.598.438.517c2.31 2.73 5.765 4.479 9.624 4.479 3.86 0 7.315-1.75 9.624-4.48l.438-.516-.318-.598c-1.3-2.447-3.852-4.148-6.84-4.148-.256 0-.5.042-.721.11l-.01.003-.009.003a6.981 6.981 0 0 1-2.164.368c-.738 0-1.455-.14-2.166-.37l-.008-.002-.009-.002a2.479 2.479 0 0 0-.72-.11c-2.989 0-5.542 1.701-6.841 4.148ZM1 21C1 13.266 7.266 7 15 7s14 6.266 14 14-6.266 14-14 14S1 28.734 1 21Zm20.323-3.871a6.323 6.323 0 1 0-12.646 0 6.323 6.323 0 0 0 12.646 0Z" stroke="#fff" stroke-width="2"/></svg>
